X: 30613
T: One That Was Lost, The
R: jig
M: 6/8
K: Edorian
g2f|:edB BAF|FED EFA|BAF D2A|FED def|
edB BAF|E2D EFA|dfb afd|1 e2f g2f:|2 ~e3 e2d||
~e3 efa|baf edB|ded BdB|AFA AB/c/d|
~e3 efa|baf edB|dfb afd|~e3 e2d|
~e3 efa|b2f edB|ded BdB|AFA def|
gfe fed|edc dBA|dfb afd|e2f g2f||

